X:1050
T:Thornton's Reel
T:Hold the Reins
R:reel
H:2nd version of 2nd part from Frankie Kennedy on Youtube
Z:id:hn-reel-1050
M:C|
L:1/8
K:G
g2dc BG~G2 | ABcA defd | g2dc BG~G2 |1 AdcA G2Bd :|2 AdcA ~G3B ||
|: df~f2 dg~g2 | defd cA~A2 |1 df~f2 dgge | fdcA GABc :|
[2 dgga bgag | fdcA G2Bd ||
P:variations
|: ~g3d BG~G2 | ABcA defd | g2dc BG~G2 | AdcA ~G3z :|
|: df~f2 dg~g2 | df~f2 efd2 |1 df~f2 dg~g2 | defd ~g3z :|
[2 ~g3a b2af | g2ba gfed ||

